source/Icon/html5.svg

<svg width="32" height="32" viewBox="0 0 48 48" fill="none" xmlns="http://www.w3.org/2000/svg">
    <path d="M37.8037 5H10.1963C9.01796 5 8.09502 6.01352 8.205 7.18668L10.8925 35.8534C10.959 36.5632 11.3984 37.1839 12.0457 37.4826L23.1619 42.6132C23.6937 42.8586 24.3063 42.8586 24.8381 42.6132L35.9543 37.4826C36.6016 37.1839 37.041 36.5632 37.1075 35.8534L39.795 7.18668C39.905 6.01352 38.982 5 37.8037 5Z" fill="#2F88FF" stroke="#000000" stroke-width="4"/>
    <path d="M32 12H16L17 21H31L30 32L24 35L18 32L17.5 27" stroke="#FFF" stroke-width="4" stroke-linecap="round" stroke-linejoin="round"/>
</svg>

<svg width="48" height="48" viewBox="0 0 48 48" fill="none" xmlns="http://www.w3.org/2000/svg"><path stroke-width="4" stroke="#333" d="M37.804 5H10.196a2 2 0 0 0-1.991 2.187l2.688 28.666a2 2 0 0 0 1.153 1.63l11.116 5.13a2 2 0 0 0 1.676 0l11.116-5.13a2 2 0 0 0 1.154-1.63l2.687-28.666A2 2 0 0 0 37.804 5Z"/><path stroke-linejoin="round" stroke-linecap="round" stroke-width="4" stroke="#333" d="M32 12H16l1 9h14l-1 11-6 3-6-3-.5-5"/></svg>
